X:49
T: Zavaros a Tisza 
O: Szilágypér, Nagy Józsefné, Csókási Olga, Nagy Ibolya
L: 1/4
K: F
F<D E<A, | D2 C>z | 
A<F A<G | F2 F z | 
A<F GA | D<B A G | 
F>D E<A, | D2 D z | 

